!!!!SEGMENT: pl-wtm--r-2289_troschel-wilhelm--warum.krn
!!!cenid: 18xx:2251
!!!COM: Troschel, Wilhelm
!!!COM-rism: pe30024099
!!!CDT: 1823/08/23-1887/03/02
!!!CNT: Polish
!!!OTL: Warum
!!!PDT:
!!!AGN:
!!!SMS-siglum: PL-Wtm
!!!SMS-shelfmark: R 2289
!!!SMS-variant:
!!!SMS-altvar:
!!!NIFC-rismID: 1001113744
!!!OMD: Ruhig
!!!system-decoration: s1{(s2,s3)}
**kern	**kern	**dynam	**kern	**text	**text	**text	**dynam
*part2	*part2	*part2	*part1	*part1	*part1	*part1	*part1
*staff3	*staff2	*	*staff1	*staff1	*staff1	*staff1	*
*	*I"Pianoforte	*	*I"Singstimme	*	*	*	*
*	*I'pf	*	*I'V	*	*	*	*
*clefF4	*clefG2	*	*clefG2	*	*	*	*
*k[b-e-a-d-]	*k[b-e-a-d-]	*	*k[b-e-a-d-]	*	*	*	*
*M4/4	*M4/4	*	*M4/4	*	*	*	*
*met(c)	*met(c)	*	*met(c)	*	*	*	*
*>[A,B,B,B,C]	*>[A,B,B,B,C]	*	*>[A,B,B,B,C]	*	*	*	*
=1	=1	=1	=1	=1	=1	=1	=1
*	*^	*	*	*	*	*	*
*>A	*>A	*>A	*	*>A	*	*	*	*
*2\right	*2\right	*2\right	*	*	*	*	*	*
*ped	*	*	*	*	*	*	*	*
!!LO:TX:t=P:problem:all\right:global
!!LO:TX:a:t=P:problem:w źródle pełno skreśleń i poprawek skryptora
!LO:TX:a:t=P:w źródle znak pedalizacji przed nutą:problem	!	!	!	!	!	!	!	!
!	!	!	!LO:DY:b:rj	!	!	!	!	!
8A-L 8E- 8AA-'>\	8a- 8c'>/	8ryy	pp	1r	.	.	.	.
8A- 8E- 8AA-'>\	4ryy	8cccL 8cc'>\	.	.	.	.	.	.
8A- 8E- 8AA-'>\	.	8aa- 8cc'>\	.	.	.	.	.	.
8A-J 8E- 8AA-'>\	16ff/LL	8cc\J	.	.	.	.	.	.
.	32gg/L	.	.	.	.	.	.	.
.	32ff/JJJ	.	.	.	.	.	.	.
*Xped	*	*	*	*	*	*	*	*
8A-L 8E- 8AA-'>\	8ee-'>/	8cc\	.	.	.	.	.	.
8A- 8E- 8AA-'>\	8a-L 8e- 8c'</	8ryy	.	.	.	.	.	.
8A- 8E- 8AA-'>\	8a- 8e- 8c'</	4ryy	.	.	.	.	.	.
!LO:TX:b:Bi:t=[segno]:problem:znak segno na kresce taktowej	!LO:TX:a:Bi:t=[segno]:problem:znak segno na kresce taktowej	!	!	!LO:TX:a:Bi:t=[segno]:problem:znak segno na kresce taktowej	!	!	!	!
8A-J 8E- 8AA-'>\	8a-J 8e- 8c'</	.	.	.	.	.	.	.
=2||	=2||	=2||	=2||	=2||	=2||	=2||	=2||	=2||
*>B	*>B	*>B	*	*>B	*	*	*	*
*ped	*	*	*	*	*	*	*	*
8GL 8E- 8AA-'>\	8b- 8e- 8d-'</	8ryy	.	1r	.	.	.	.
8G 8E- 8AA-'>\	4ryy	8bb-L 8dd-'>\	.	.	.	.	.	.
8G 8E- 8AA-'>\	.	8gg 8dd-'>\	.	.	.	.	.	.
8GJ 8E- 8AA-'>\	16ff/LL	8dd-\J	.	.	.	.	.	.
.	32gg/L	.	.	.	.	.	.	.
.	32ff/JJJ	.	.	.	.	.	.	.
*Xped	*	*	*	*	*	*	*	*
8GL 8E- 8AA-'>\	8ee-/	8dd-'>\	.	.	.	.	.	.
8G 8E- 8AA-'>\	8b-L 8e- 8d-'</	8ryy	.	.	.	.	.	.
8G 8E- 8AA-'>\	8b- 8e- 8d-'</	4ryy	.	.	.	.	.	.
8GJ 8E- 8AA-'>\	8b-J 8e- 8d-'</	.	.	.	.	.	.	.
!!LO:LB:g=original
=3	=3	=3	=3	=3	=3	=3	=3	=3
*ped	*	*	*	*	*	*	*	*
!LO:TX:a:t=P:w źródle znak pedalizacji przed nutą:problem	!	!	!	!	!	!	!	!
8G-XL 8E- 8AA-'>\	8cc 8e- 8c'</	8ryy	.	1r	.	.	.	.
8G- 8E- 8AA-'>\	16aa-/LL	8cc\L	.	.	.	.	.	.
.	32bb-/L	.	.	.	.	.	.	.
.	32aa-/JJJ	.	.	.	.	.	.	.
8G- 8E- 8AA-'>\	8ee-'>/L	8cc\	.	.	.	.	.	.
8G-J 8E- 8AA-'>\	8cc'>/J	8a-\J	.	.	.	.	.	.
*Xped	*	*	*	*	*	*	*	*
8FL 8D- 8AA-'>\	8dd-/	8dd-'>\	.	.	.	.	.	.
8F 8D- 8AA-'>\	8a-L 8d-'</	8ryy	.	.	.	.	.	.
8F 8D- 8AA-'>\	8a- 8d-'</	4ryy	.	.	.	.	.	.
8FJ 8D- 8AA-'>\	8a-J 8d-'</	.	.	.	.	.	.	.
=4	=4	=4	=4	=4	=4	=4	=4	=4
*ped	*	*	*	*	*	*	*	*
8GL 8F-X 8D- 8AA-'>\	8b- 8d-'</	8ryy	.	1r	.	.	.	.
8G 8F- 8D- 8AA-'>\	16ff-X/LL	8b-\L	.	.	.	.	.	.
.	32gg-X/L	.	.	.	.	.	.	.
.	32ff-/JJJ	.	.	.	.	.	.	.
8G 8F- 8D- 8AA-'>\	8dd-'>/L	8b-\	.	.	.	.	.	.
8GJ 8F- 8D- 8AA-'>\	8b-'>/J	8b-\J	.	.	.	.	.	.
*Xped	*	*	*	*	*	*	*	*
8A-L 8E- 8C 8AA-'>\	8a-'</L	2ryy	.	.	.	.	.	.
8A- 8E- 8AA-'>\	8a- 8e- 8c'</	.	.	.	.	.	.	.
8A- 8E- 8AA-'>\	8a- 8e- 8c'</	.	.	.	.	.	.	.
8A-J 8E- 8AA-'>\	8a-J 8e- 8c'</	.	.	.	.	.	.	.
!!LO:LB:g=original
*	*v	*v	*	*	*	*	*	*
=5	=5	=5	=5	=5	=5	=5	=5
*	*	*	*2\right	*	*	*	*
8A-L 8E- 8AA-'>\	8a-L 8e- 8c'</	.	4e-/	Wenn	Wenn	Wenn	.
8A- 8E- 8AA-'>\	8a- 8e- 8c'</	.	.	.	.	.	.
8A- 8E- 8AA-'>\	8a- 8e- 8c'</	.	8.f/	Al-	Je-	lang-	.
8A-J 8E- 8AA-'>\	8a-J 8e- 8c'</	.	.	.	.	.	.
.	.	.	16g/	-le	-der	-sam	.
8A-L 8E- 8AA-'>\	8a-L 8e- 8c'</	.	4.a-/	foh	freund-	schwin-	.
8A- 8E- 8AA-'>\	8a- 8e- 8c'</	.	.	.	.	.	.
8A- 8E- 8AA-'>\	8a- 8e- 8c'</	.	.	.	.	.	.
8A-J 8E- 8AA-'>\	8a-J 8e- 8c'</	.	8a-/	zum	-lich	-det	.
=6	=6	=6	=6	=6	=6	=6	=6
8GL 8E-'>\	8b-L 8e- 8d-'</	.	4b-/	Tan-	zu	mei-	.
8G 8E-'>\	8b- 8e- 8d-'</	.	.	.	.	.	.
8F 8E-'>\	8a- 8e- 8d-'</	.	8a-/L	-ze	Dir	-ne	.
8FJ 8E-'>\	8b-J 8e- 8d-'</	.	8b-/J	.	.	.	.
8A-L 8E- 8AA-'>\	8ccL 8e- 8c'</	<	2cc\	gehn,	spricht,	Kraft,	.
8A- 8E- 8AA-'>\	8cc 8e- 8c'</	.	.	.	.	.	.
8A- 8E- 8AA-'>\	8cc 8e- 8c'</	.	.	.	.	.	.
8A-J 8E- 8AA-'>\	8ccJ 8e- 8c'</	[	.	.	.	.	.
!!LO:LB:g=original
=7	=7	=7	=7	=7	=7	=7	=7
!	!	!LO:DY:b:rj	!	!	!	!	!LO:DY:b:rj
8F#XL 8AAn\	8ccL 8e-/	f	4cc\	wenn	und	be-	f
8F# 8AA\	8cc 8e-/	.	.	.	.	.	.
8F# 8AA\	8cc 8e-/	.	8.cc\	Tu-	ich,	-trüb'	.
8F#J 8AA\	8ccJ 8e-/	.	.	.	.	.	.
*ped	*	*	*	*	*	*	*
.	.	.	16cc\	-bel	al-	dich,	.
8GL 8BB-^>\	8b-L 8e-^</	.	2ee-\	schallt.	-lein	nicht	.
8G 8BB-^>\	8ee- 8e-^</	.	.	.	.	.	.
8G 8BB-^>\	8ddn 8e-^</	.	.	.	.	.	.
*Xped	*	*	*	*	*	*	*
8GJ 8BB-^>\	8ccJ 8e-^</	.	.	.	.	.	.
=8	=8	=8	=8	=8	=8	=8	=8
*	*	*^	*	*	*	*	*
!	!	!	!	!	!	!	!	!LO:HP:b
8B-L 8F 8BB-\	8b-L 8a- 8dn/	>	.	(>2b-/	rings-	bin	da-	>
8B- 8F 8BB-\	8bn 8a- 8d/	.	>	.	.	.	.	.
.	8qddn/	.	.	.	.	.	.	.
8B- 8F 8BB-\	8cc 8a- 8d/	.	.	.	.	.	.	.
8B-J 8F 8BB-\	8b-XJ 8a- 8d/	.	.	.	.	.	.	.
8B-L 8E-'>\	8b-L 8g 8e-\	]	.	4e-/)	-um,	stumm	-rum;	.
8B- 8E-'>\	8gg 8g'>\	.	.	.	.	.	.	.
8B- 8E-'>\	8ee- 8g'>\	.	.	4r	.	.	.	.
8B-J 8E-'>\	8ccJ 8g'>\	.	.	.	.	.	.	.
!!LO:PB:g=original
*	*	*v	*v	*	*	*	*	*
=9	=9	=9	=9	=9	=9	=9	=9
!	!	!LO:DY:b:rj	!	!	!	!	!LO:DY:b:rj
8B-L 8E-\	8b-L 8g/	pp	4b-/	und	O,	doch	pp
8B- 8E-\	8b- 8g/	.	.	.	.	.	.
8B- 8E-\	8b- 8g-X/	.	8.b-/	ich	tad-	wenn	.
8B-J 8E-\	8ccJ 8g-/	.	.	.	.	.	.
.	.	.	16cc/	bleib'	-le,	der	.
8B-L 8BB-\	8dd-L 8f/	.	2dd-\	still	dann,	Tod.	.
8B- 8BB-\	8dd- 8f/	.	.	.	.	.	.
8B- 8BB-\	8dd- 8f/	.	.	.	.	.	.
8B-J 8BB-\	8dd-J 8f/	.	.	.	.	.	.
=10	=10	=10	=10	=10	=10	=10	=10
8A-L 8D-\	8a-L 8f/	.	4a-/	und	mein	mich	.
8A- 8D-\	8a- 8f/	.	.	.	.	.	.
8A- 8D-\	8a- 8f-X/	.	8.a-/	trau-	Schwei-	him-	.
8A-J 8D-\	8b-J 8f-/	.	.	.	.	.	.
.	.	.	16b-/	-rig	-gen	-ge-	.
8A-L 8AA-\	8ccL 8e-/	<	2cc\	stehn,	nicht	-rafft,	.
8A- 8AA-\	8cc 8e-/	.	.	.	.	.	.
8A- 8AA-\	8cc 8e-/	.	.	.	.	.	.
8GnJ 8AA-\	8ccJ 8e-/	[	.	.	.	.	.
!!LO:LB:g=original
=11	=11	=11	=11	=11	=11	=11	=11
*ped	*	*	*	*	*	*	*
!LO:TX:a:t=P:w źródle znak pedalizacji przed nuta:problem	!	!	!	!	!	!	!
!	!	!LO:DY:b:rj	!	!	!	!	!LO:DY:b:rj
8G-XL 8AA-\	8ccL 8e-/	f	4cc\	so	und	dann	f
8G- 8AA-\	8cc 8e-/	.	.	.	.	.	.
!	!LO:TX:b:Bi:t=ten&colon;	!	!	!	!	!	!
8c 8AA-\	8ff 8a-/	.	(>8.ff\	fra-	fra-	fra-	.
8cJ 8A-\	8ee-J 8g-X/	.	.	.	.	.	.
*Xped	*	*	*	*	*	*	*
.	.	.	16ee-\)	-ge	-ge	-ge	.
8d-L 8A- 8D-\	8dd-L 8f/	.	4.dd-\	nicht:	nicht:	nûr:	.
8d- 8A- 8D-\	8a- 8f/	>	.	.	.	.	.
8d- 8A- 8D-\	8dd- 8f-X/	.	.	.	.	.	.
8A-J 8E-\	8ccJ 8e-/	.	16r	.	.	.	.
.	.	]]	16cc\	Wa-	Wa-	Wa-	>.
=12	=12	=12	=12	=12	=12	=12	=12
*M2/4	*M2/4	*	*M2/4	*	*	*	*
8A-L 8F\	8b-L 8dn/	.	4b-\	-rum?	-rum?	-rum?	]
!LO:TX:b:Bi:t=poco rit&colon;	!	!	!LO:TX:a:Bi:t=poco rit&colon;	!	!	!	!
8A- 8F\	8b- 8d/	.	.	.	.	.	.
!	!	!LO:DY:b:Bi:t=%s.:rj	!	!	!	!	!
8A- 8F-X\	8b- 8d-X/	p	8.r	.	.	.	.
8GJ 8E-\	8ccJ 8e-/	.	.	.	.	.	.
!	!	!	!	!	!	!	!LO:DY:b:rj
.	.	.	16cc\	Wa-	Wa-	Wa-	p
!!LO:LB:g=original
=13	=13	=13	=13	=13	=13	=13	=13
*	*^	*	*	*	*	*	*
*M4/4	*M4/4	*	*	*M4/4	*	*	*	*
*met(c)	*met(c)	*	*	*met(c)	*	*	*	*
*ped	*	*	*	*	*	*	*	*
8A-L 8E- 8AA-'>\	8a- 8c'</	8ryy	pp	4a-/	-rum?	-rum?	-rum?	.
8A- 8E- 8AA-'>\	4ryy	8cccL 8cc'>\	.	.	.	.	.	.
8A- 8E- 8AA-'>\	.	8aa- 8cc'>\	.	2r	.	.	.	.
8A-J 8E- 8AA-'>\	16ff/LL	8cc\J	.	.	.	.	.	.
.	32gg/L	.	.	.	.	.	.	.
.	32ff/JJJ	.	.	.	.	.	.	.
*Xped	*	*	*	*	*	*	*	*
8A-L 8E- 8AA-'>\	8ee-/	8cc'<\	.	.	.	.	.	.
8A- 8E- 8AA-'>\	8a-L 8e- 8c'</	8ryy	.	.	.	.	.	.
8A- 8E- 8AA-'>\	8a- 8e- 8c'</	4ryy	.	4r	.	.	.	.
!LO:TX:b:Bi:t=[segno]:problem:znak segno na kresce taktowej	!LO:TX:a:Bi:t=[segno]:problem:znak segno na kresce taktowej	!	!	!LO:TX:a:Bi:t=[segno]:problem:znak segno na kresce taktowej	!	!	!	!
!	!LO:TX:a:Bi:t=vi	!	!	!	!	!	!	!
!	!LO:TX:a:i:t=na drugiej stronie	!	!	!	!	!	!	!
8A-J 8E- 8AA-'>\	8a-J 8e- 8c'</	.	.	.	.	.	.	.
!!LO:PB:g=original
=14||	=14||	=14||	=14||	=14||	=14||	=14||	=14||	=14||
*>C	*>C	*>C	*	*>C	*	*	*	*
!	!LO:TX:a:Bi:t=de:rj	!	!	!	!	!	!	!
8A-L 8E- 8AA-'>\	8a- 8e- 8c/	8ryy	.	1ryy	.	.	.	.
8A- 8E- 8AA-'>\	16aa-/LL	8cc\L	.	.	.	.	.	.
!	!LO:TX:b:Bi:t=rit	!	!	!	!	!	!	!
.	32bb-/L	.	.	.	.	.	.	.
.	32aa-/JJJ	.	.	.	.	.	.	.
8A- 8E- 8AA-'>\	8ee-'>/L	8cc\	.	.	.	.	.	.
8A-J 8E- 8AA-'>\	8cc'>/J	8a-\J	.	.	.	.	.	.
8A- 8E- 8AA-''>\	8a- 8c/	2ryy	.	.	.	.	.	.
8r	8r	.	.	.	.	.	.	.
4r	4r	.	.	.	.	.	.	.
*	*v	*v	*	*	*	*	*	*
=15	=15	=15	=15	=15	=15	=15	=15
!	!	!LO:DY:b:rj	!	!	!	!	!
1AA- 1EE- 1AAA-;<	1A-< 1E-< 1C<;>	ppp	1ryy	.	.	.	.
==	==	==	==	==	==	==	==
*-	*-	*-	*-	*-	*-	*-	*-
!!title: @{OTL};
!!!RDF**kern: > = above
!!!RDF**kern: < = below
!!!RDF**dynam: > = "dim:", fontstyle= "bold-italic"
!!!RDF**dynam: < = "cresc:", fontstyle= "bold-italic"
!!!RDF**kern: | = vertical stroke
!!!RDF**kern: N = linked
!!!RDF**kern: i = editorial accidental
!!!EED: Wojciech Jakubiak-Danek
!!!EST: 2021-06-07
!!!URL-scan: http://repozytorium.nifc.pl/skany/pl-wtm-nut--r2289
!!!ONB-nifc: UWAGA: Na ostatniej stronie dopisana ostateczna wersja wykreślonego zakończenia utworu
!!!ENC: Anastazja Marusiak
!!!END: 2021-05-24
